public/media/icons/duotune/files/fil009.svg

<svg width="24" height="24" viewBox="0 0 24 24" fill="none" xmlns="http://www.w3.org/2000/svg">
<path opacity="0.3" d="M19,22H5c-0.6,0-1-0.4-1-1V3c0-0.6,0.4-1,1-1h9l6,6v13C20,21.6,19.6,22,19,22z" fill="currentColor"/>
<path d="M11,16V9.6c0-0.3,0.4-1.1,1-1.1s1,0.7,1,1.1V16H11z" fill="currentColor"/>
<path d="M15.7,16.1c0.4-0.4,0.2-1.1-0.4-1.1H8.6c-0.6,0-0.8,0.7-0.4,1.1l3.3,2.8c0.2,0.2,0.6,0.2,0.9,0L15.7,16.1z" fill="currentColor"/>
<path d="M15,8h5l-6-6v5C14,7.6,14.4,8,15,8z" fill="currentColor"/>
</svg>

<svg width="24" height="24" viewBox="0 0 24 24" fill="none" xmlns="http://www.w3.org/2000/svg">
<path opacity="0.3" d="M19 22H5C4.4 22 4 21.6 4 21V3C4 2.4 4.4 2 5 2H14L20 8V21C20 21.6 19.6 22 19 22ZM13 15.4V10C13 9.4 12.6 9 12 9C11.4 9 11 9.4 11 10V15.4H8L11.3 18.7C11.7 19.1 12.3 19.1 12.7 18.7L16 15.4H13Z" fill="black"/>
<path d="M15 8H20L14 2V7C14 7.6 14.4 8 15 8Z" fill="black"/>
</svg>
